; generated by PrusaSlicer 2.4.2+linux-x64-GTK2 on 2024-01-20 at 17:58:34 UTC


;
;
; 

; external perimeters extrusion width = 0.60mm
; perimeters extrusion width = 0.50mm
; infill extrusion width = 0.50mm
; solid infill extrusion width = 0.50mm
; top infill extrusion width = 0.45mm
; first layer extrusion width = 0.42mm

M73 P0 R49
M73 Q0 S49
M201 X1000 Y1000 Z200 E5000 ; sets maximum accelerations, mm/sec^2
M203 X200 Y200 Z12 E120 ; sets maximum feedrates, mm / sec
M204 P1250 R1250 T1250 ; sets acceleration (P, T) and retract acceleration (R), mm/sec^2
M205 X8.00 Y8.00 Z0.40 E4.50 ; sets the jerk limits, mm/sec
M205 S0 T0 ; sets the minimum extruding and travel feed rate, mm/sec
M107
;TYPE:Custom
M862.3 P "MK3" ; printer model check
M862.1 P0.4 ; nozzle diameter check
M115 U3.11.0 ; tell printer latest fw version
G90 ; use absolute coordinates
M83 ; extruder relative mode
M104 S215 ; set extruder temp
M140 S60 ; set bed temp
M190 S60 ; wait for bed temp
M109 S215 ; wait for extruder temp
G28 W ; home all without mesh bed level
G80 ; mesh bed leveling
G1 Z0.2 F720
G1 Y-3 F1000 ; go outside print area
G92 E0
G1 X60 E9 F1000 ; intro line
G1 X100 E12.5 F1000 ; intro line
G92 E0
M221 S95

; Don't change E values below. Excessive value can damage the printer.

M907 E538 ; set extruder motor current
G21 ; set units to millimeters
G90 ; use absolute coordinates
M83 ; use relative distances for extrusion
M900 K0.05 ; Filament gcode LA 1.5
M900 K30 ; Filament gcode LA 1.0
M107
;LAYER_CHANGE
;Z:0.2
;HEIGHT:0.2
;BEFORE_LAYER_CHANGE
G92 E0.0
;0.2


G1 E-.8 F2100
G1 Z.4 F720
;AFTER_LAYER_CHANGE
;0.2
G1 X84.015 Y80.693 F10800
G1 Z.2 F720
G1 E.8 F2100
M204 S800
;TYPE:Skirt/Brim
;WIDTH:0.42
G1 F1200
G1 X85.06 Y79.817 E.04278
G1 X86 Y79.623 E.03008
G1 X128.132 Y79.627 E1.32101
G1 X164.132 Y81.627 E1.1305
G1 X165.415 Y82.09 E.04278
G1 X166.232 Y83.183 E.04278
G1 X166.377 Y84 E.02602
G1 X166.377 Y126 E1.31688
G1 X165.985 Y127.307 E.04278
G1 X164.94 Y128.183 E.04278
G1 X164.132 Y128.373 E.02602
G1 X128.132 Y130.373 E1.1305
G1 X86 Y130.377 E1.32101
G1 X84.693 Y129.985 E.04278
G1 X83.817 Y128.94 E.04278
G1 X83.623 Y128 E.03008
G1 X83.623 Y82 E1.4423
G1 X83.997 Y80.75 E.0409
M204 S1000
; printing object bracket.stl id:0 copy 0
;WIPE_START
M73 P0 R48
G1 F8640
G1 X85.06 Y79.817 E-.32671
G1 X86 Y79.623 E-.22155
G1 X86.917 Y79.623 E-.21174
;WIPE_END
G1 E-.04 F2100
G1 Z.6 F720
G1 X86.787 Y82.787 F10800
G1 Z.2 F720
G1 E.8 F2100
M204 S800
;TYPE:Perimeter
G1 F1200
G1 X127.213 Y82.787 E1.26752
G1 X127.213 Y84.787 E.06271
G1 X163.213 Y84.787 E1.12875
G1 X163.213 Y85.213 E.01335
G1 X127.213 Y85.213 E1.12875
G1 X127.213 Y124.787 E1.24082
G1 X163.213 Y124.787 E1.12875
G1 X163.213 Y125.213 E.01335
M73 P1 R48
M73 Q1 S49
G1 X127.213 Y125.213 E1.12875
G1 X127.213 Y127.213 E.06271
M73 Q1 S48
G1 X86.787 Y127.213 E1.26752
G1 X86.787 Y126.787 E.01335
G1 X126.787 Y126.787 E1.25417
G1 X126.787 Y83.213 E1.36624
G1 X86.787 Y83.213 E1.25417
G1 X86.787 Y82.847 E.01147
M204 S1000
G1 X86.41 Y82.41 F10800
M204 S800
;TYPE:External perimeter
G1 F1200
G1 X127.59 Y82.41 E1.29117
G1 X127.59 Y84.41 E.06271
G1 X163.59 Y84.41 E1.12875
G1 X163.59 Y85.59 E.037
G1 X127.59 Y85.59 E1.12875
G1 X127.59 Y124.41 E1.21717
G1 X163.59 Y124.41 E1.12875
G1 X163.59 Y125.59 E.037
G1 X127.59 Y125.59 E1.12875
G1 X127.59 Y127.59 E.06271
G1 X86.41 Y127.59 E1.29117
G1 X86.41 Y126.41 E.037
G1 X126.41 Y126.41 E1.25417
G1 X126.41 Y83.59 E1.34259
G1 X86.41 Y83.59 E1.25417
G1 X86.41 Y82.47 E.03512
M204 S1000
M73 P2 R48
M73 Q2 S48
G1 X86.81 Y82.414 F10800
; stop printing object bracket.stl id:0 copy 0
M106 S84.15
;LAYER_CHANGE
;Z:0.5
;HEIGHT:0.3
;BEFORE_LAYER_CHANGE
G92 E0.0
;0.5


;WIPE_START
G1 F8640
G1 X89.701 Y82.465 E-.76
;WIPE_END
G1 E-.04 F2100
G1 Z.6 F720
;AFTER_LAYER_CHANGE
;0.5
M104 S210 ; set temperature
G1 X89.702 Y79.623 F10800
G1 Z.5 F720
G1 E.8 F2100
;TYPE:Skirt/Brim
G1 F2700
G1 X128.132 Y79.627 E1.70456
G1 X164.132 Y81.627 E1.59924
G1 X165.415 Y82.09 E.06052
G1 X166.232 Y83.183 E.06052
G1 X166.377 Y84 E.03681
G1 X166.377 Y126 E1.8629
G1 X165.985 Y127.307 E.06052
G1 X164.94 Y128.183 E.06052
G1 X164.132 Y128.373 E.03681
G1 X128.132 Y130.373 E1.59924
G1 X86 Y130.377 E1.86875
G1 X84.693 Y129.985 E.06052
G1 X83.817 Y128.94 E.06052
G1 X83.623 Y128 E.04256
G1 X83.623 Y82 E2.04032
G1 X84.015 Y80.693 E.06052
G1 X85.06 Y79.817 E.06052
G1 X86 Y79.623 E.04256
G1 X89.642 Y79.623 E.16153
; printing object bracket.stl id:0 copy 0
;WIPE_START
G1 F8640
G1 X92.933 Y79.624 E-.76
;WIPE_END
G1 E-.04 F2100
G1 Z.9 F720
G1 X127.214 Y84.786 F10800
G1 Z.5 F720
G1 E.8 F2100
M204 S800
;TYPE:Perimeter
;WIDTH:0.5
G1 F3000
G1 X163.214 Y84.786 E1.95598
G1 X163.214 Y85.214 E.0233
G1 X127.214 Y85.214 E1.95598
G1 X127.214 Y124.786 E2.15002
G1 X163.214 Y124.786 E1.95598
G1 X163.214 Y125.214 E.0233
G1 X127.214 Y125.214 E1.95598
G1 X127.214 Y127.214 E.10867
G1 X86.786 Y127.214 E2.19661
G1 X86.786 Y126.786 E.0233
G1 X126.786 Y126.786 E2.17331
G1 X126.786 Y83.214 E2.36735
G1 X86.786 Y83.214 E2.17331
G1 X86.786 Y82.786 E.0233
G1 X127.214 Y82.786 E2.19661
G1 X127.214 Y84.726 E.10541
M204 S1000
G1 X127.7 Y84.3 F10800
M204 S800
;TYPE:External perimeter
;WIDTH:0.6
G1 F2100
G1 X163.7 Y84.3 E2.40499
G1 X163.7 Y85.7 E.09353
G1 X127.7 Y85.7 E2.40499
G1 X127.7 Y124.3 E2.57869
G1 X163.7 Y124.3 E2.40499
G1 X163.7 Y125.7 E.09353
M73 P2 R47
G1 X127.7 Y125.7 E2.40499
G1 X127.7 Y127.7 E.13361
G1 X86.3 Y127.7 E2.76574
G1 X86.3 Y126.3 E.09353
G1 X126.3 Y126.3 E2.67222
G1 X126.3 Y83.7 E2.84591
G1 X86.3 Y83.7 E2.67222
G1 X86.3 Y82.3 E.09353
G1 X127.7 Y82.3 E2.76574
G1 X127.7 Y84.24 E.1296
M204 S1000
G1 X127.894 Y84.65 F10800
; stop printing object bracket.stl id:0 copy 0
M106 S170.85
;LAYER_CHANGE
;Z:0.8
;HEIGHT:0.3
;BEFORE_LAYER_CHANGE
G92 E0.0
;0.8


;WIPE_START
G1 F8640
G1 X130.991 Y84.245 E-.76
;WIPE_END
G1 E-.04 F2100
G1 Z.9 F720
;AFTER_LAYER_CHANGE
;0.8
G1 X131.238 Y79.799 F10800
G1 Z.8 F720
G1 E.8 F2100
;TYPE:Skirt/Brim
;WIDTH:0.42
G1 F2700
G1 X164.132 Y81.627 E1.46123
G1 X165.415 Y82.09 E.06052
G1 X166.232 Y83.183 E.06052
G1 X166.377 Y84 E.03681
M73 Q3 S48
G1 X166.377 Y126 E1.8629
M73 P3 R47
G1 X165.985 Y127.307 E.06052
G1 X164.94 Y128.183 E.06052
G1 X164.132 Y128.373 E.03681
G1 X128.132 Y130.373 E1.59924
G1 X86 Y130.377 E1.86875
G1 X84.693 Y129.985 E.06052
M73 Q3 S47
G1 X83.817 Y128.94 E.06052
G1 X83.623 Y128 E.04256
G1 X83.623 Y82 E2.04032
G1 X84.015 Y80.693 E.06052
G1 X85.06 Y79.817 E.06052
G1 X86 Y79.623 E.04256
G1 X128.132 Y79.627 E1.86875
G1 X131.179 Y79.796 E.13534
; printing object bracket.stl id:0 copy 0
;WIPE_START
G1 F8640
G1 X134.465 Y79.978 E-.76
;WIPE_END
G1 E-.04 F2100
G1 Z1.2 F720
G1 X127.214 Y82.786 F10800
G1 Z.8 F720
G1 E.8 F2100
M204 S800
;TYPE:Perimeter
;WIDTH:0.5
G1 F3000
G1 X127.214 Y84.786 E.10867
G1 X163.214 Y84.786 E1.95598
G1 X163.214 Y85.214 E.0233
G1 X127.214 Y85.214 E1.95598
G1 X127.214 Y124.786 E2.15002
G1 X163.214 Y124.786 E1.95598
G1 X163.214 Y125.214 E.0233
G1 X127.214 Y125.214 E1.95598
G1 X127.214 Y127.214 E.10867
G1 X86.786 Y127.214 E2.19661
G1 X86.786 Y126.786 E.0233
G1 X126.786 Y126.786 E2.17331
G1 X126.786 Y83.214 E2.36735
G1 X86.786 Y83.214 E2.17331
G1 X86.786 Y82.786 E.0233
G1 X127.154 Y82.786 E2.19335
M204 S1000
G1 X127.7 Y82.3 F10800
M204 S800
;TYPE:External perimeter
;WIDTH:0.6
G1 F2100
G1 X127.7 Y84.3 E.13361
G1 X163.7 Y84.3 E2.40499
G1 X163.7 Y85.7 E.09353
G1 X127.7 Y85.7 E2.40499
G1 X127.7 Y124.3 E2.57869
G1 X163.7 Y124.3 E2.40499
G1 X163.7 Y125.7 E.09353
G1 X127.7 Y125.7 E2.40499
G1 X127.7 Y127.7 E.13361
G1 X86.3 Y127.7 E2.76574
G1 X86.3 Y126.3 E.09353
G1 X126.3 Y126.3 E2.67222
G1 X126.3 Y83.7 E2.84591
G1 X86.3 Y83.7 E2.67222
G1 X86.3 Y82.3 E.09353
G1 X127.64 Y82.3 E2.76174
M204 S1000
G1 X127.504 Y82.649 F10800
; stop printing object bracket.stl id:0 copy 0
M106 S255
;LAYER_CHANGE
;Z:1.1
;HEIGHT:0.3
;BEFORE_LAYER_CHANGE
G92 E0.0
;1.1


;WIPE_START
G1 F8640
G1 X127.7 Y84.3 E-.46201
G1 X128.991 Y84.3 E-.29799
;WIPE_END
G1 E-.04 F2100
G1 Z1.2 F720
;AFTER_LAYER_CHANGE
;1.1
; printing object bracket.stl id:0 copy 0
G1 X127.214 Y84.786 F10800
G1 Z1.1 F720
G1 E.8 F2100
M204 S800
;TYPE:Perimeter
;WIDTH:0.5
G1 F3000
G1 X163.214 Y84.786 E1.95598
G1 X163.214 Y85.214 E.0233
G1 X127.214 Y85.214 E1.95598
G1 X127.214 Y124.786 E2.15002
G1 X163.214 Y124.786 E1.95598
G1 X163.214 Y125.214 E.0233
G1 X127.214 Y125.214 E1.95598
G1 X127.214 Y127.214 E.10867
M73 P4 R47
M73 Q4 S47
G1 X86.786 Y127.214 E2.19661
G1 X86.786 Y126.786 E.0233
G1 X126.786 Y126.786 E2.17331
G1 X126.786 Y83.214 E2.36735
G1 X86.786 Y83.214 E2.17331
G1 X86.786 Y82.786 E.0233
G1 X127.214 Y82.786 E2.19661
G1 X127.214 Y84.726 E.10541
M204 S1000
G1 X127.7 Y84.3 F10800
M204 S800
;TYPE:External perimeter
;WIDTH:0.6
G1 F2100
G1 X163.7 Y84.3 E2.40499
G1 X163.7 Y85.7 E.09353
G1 X127.7 Y85.7 E2.40499
G1 X127.7 Y124.3 E2.57869
G1 X163.7 Y124.3 E2.40499
G1 X163.7 Y125.7 E.09353
G1 X127.7 Y125.7 E2.40499
G1 X127.7 Y127.7 E.13361
G1 X86.3 Y127.7 E2.76574
G1 X86.3 Y126.3 E.09353
G1 X126.3 Y126.3 E2.67222
G1 X126.3 Y83.7 E2.84591
G1 X86.3 Y83.7 E2.67222
G1 X86.3 Y82.3 E.09353
G1 X127.7 Y82.3 E2.76574
G1 X127.7 Y84.24 E.1296
M204 S1000
G1 X127.894 Y84.65 F10800
; stop printing object bracket.stl id:0 copy 0
;LAYER_CHANGE
;Z:1.4
;HEIGHT:0.3
;BEFORE_LAYER_CHANGE
G92 E0.0
;1.4


;WIPE_START
G1 F8640
G1 X130.991 Y84.245 E-.76
;WIPE_END
G1 E-.04 F2100
G1 Z1.5 F720
;AFTER_LAYER_CHANGE
;1.4
; printing object bracket.stl id:0 copy 0
G1 X127.214 Y84.786 F10800
G1 Z1.4 F720
G1 E.8 F2100
M204 S800
;TYPE:Perimeter
;WIDTH:0.5
G1 F3000
G1 X163.214 Y84.786 E1.95598
G1 X163.214 Y85.214 E.0233
G1 X127.214 Y85.214 E1.95598
G1 X127.214 Y124.786 E2.15002
G1 X163.214 Y124.786 E1.95598
G1 X163.214 Y125.214 E.0233
G1 X127.214 Y125.214 E1.95598
G1 X127.214 Y127.214 E.10867
M73 P4 R46
G1 X86.786 Y127.214 E2.19661
G1 X86.786 Y126.786 E.0233
G1 X126.786 Y126.786 E2.17331
G1 X126.786 Y83.214 E2.36735
G1 X86.786 Y83.214 E2.17331
G1 X86.786 Y82.786 E.0233
G1 X127.214 Y82.786 E2.19661
G1 X127.214 Y84.726 E.10541
M204 S1000
G1 X127.7 Y84.3 F10800
M204 S800
;TYPE:External perimeter
;WIDTH:0.6
G1 F2100
G1 X163.7 Y84.3 E2.40499
G1 X163.7 Y85.7 E.09353
G1 X127.7 Y85.7 E2.40499
G1 X127.7 Y124.3 E2.57869
G1 X163.7 Y124.3 E2.40499
G1 X163.7 Y125.7 E.09353
M73 P5 R46
M73 Q5 S47
G1 X127.7 Y125.7 E2.40499
G1 X127.7 Y127.7 E.13361
G1 X86.3 Y127.7 E2.76574
G1 X86.3 Y126.3 E.09353
G1 X126.3 Y126.3 E2.67222
G1 X126.3 Y83.7 E2.84591
M73 Q5 S46
G1 X86.3 Y83.7 E2.67222
G1 X86.3 Y82.3 E.09353
G1 X127.7 Y82.3 E2.76574
G1 X127.7 Y84.24 E.1296
M204 S1000
G1 X127.894 Y84.65 F10800
; stop printing object bracket.stl id:0 copy 0
;LAYER_CHANGE
;Z:1.7
;HEIGHT:0.3
;BEFORE_LAYER_CHANGE
G92 E0.0
;1.7


;WIPE_START
G1 F8640
G1 X130.991 Y84.245 E-.76
;WIPE_END
G1 E-.04 F2100
G1 Z1.8 F720
;AFTER_LAYER_CHANGE
;1.7
; printing object bracket.stl id:0 copy 0
G1 X127.214 Y84.786 F10800
G1 Z1.7 F720
G1 E.8 F2100
M204 S800
;TYPE:Perimeter
;WIDTH:0.5
G1 F3000
G1 X163.214 Y84.786 E1.95598
G1 X163.214 Y85.214 E.0233
G1 X127.214 Y85.214 E1.95598
G1 X127.214 Y124.786 E2.15002
G1 X163.214 Y124.786 E1.95598
G1 X163.214 Y125.214 E.0233
G1 X127.214 Y125.214 E1.95598
G1 X127.214 Y127.214 E.10867
G1 X86.786 Y127.214 E2.19661
G1 X86.786 Y126.786 E.0233
G1 X126.786 Y126.786 E2.17331
G1 X126.786 Y83.214 E2.36735
G1 X86.786 Y83.214 E2.17331
G1 X86.786 Y82.786 E.0233
G1 X127.214 Y82.786 E2.19661
G1 X127.214 Y84.726 E.10541
M204 S1000
G1 X127.7 Y84.3 F10800
M204 S800
;TYPE:External perimeter
;WIDTH:0.6
G1 F2100
G1 X163.7 Y84.3 E2.40499
G1 X163.7 Y85.7 E.09353
G1 X127.7 Y85.7 E2.40499
G1 X127.7 Y124.3 E2.57869
G1 X163.7 Y124.3 E2.40499
G1 X163.7 Y125.7 E.09353
G1 X127.7 Y125.7 E2.40499
G1 X127.7 Y127.7 E.13361
G1 X86.3 Y127.7 E2.76574
G1 X86.3 Y126.3 E.09353
G1 X126.3 Y126.3 E2.67222
G1 X126.3 Y83.7 E2.84591
G1 X86.3 Y83.7 E2.67222
G1 X86.3 Y82.3 E.09353
G1 X127.7 Y82.3 E2.76574
G1 X127.7 Y84.24 E.1296
M204 S1000
G1 X127.894 Y84.65 F10800
; stop printing object bracket.stl id:0 copy 0
;LAYER_CHANGE
;Z:2
;HEIGHT:0.3
;BEFORE_LAYER_CHANGE
G92 E0.0
;2


;WIPE_START
G1 F8640
G1 X130.991 Y84.245 E-.76
;WIPE_END
G1 E-.04 F2100
G1 Z2.1 F720
;AFTER_LAYER_CHANGE
;2
; printing object bracket.stl id:0 copy 0
G1 X127.214 Y84.786 F10800
G1 Z2 F720
G1 E.8 F2100
M204 S800
;TYPE:Perimeter
;WIDTH:0.5
G1 F3000
G1 X163.214 Y84.786 E1.95598
G1 X163.214 Y85.214 E.0233
M73 P6 R46
G1 X127.214 Y85.214 E1.95598
G1 X127.214 Y124.786 E2.15002
M73 Q6 S46
G1 X163.214 Y124.786 E1.95598
G1 X163.214 Y125.214 E.0233
G1 X127.214 Y125.214 E1.95598
G1 X127.214 Y127.214 E.10867
G1 X86.786 Y127.214 E2.19661
G1 X86.786 Y126.786 E.0233
G1 X126.786 Y126.786 E2.17331
G1 X126.786 Y83.214 E2.36735
G1 X86.786 Y83.214 E2.17331
G1 X86.786 Y82.786 E.0233
G1 X127.214 Y82.786 E2.19661
G1 X127.214 Y84.726 E.10541
M204 S1000
G1 X127.7 Y84.3 F10800
M204 S800
;TYPE:External perimeter
;WIDTH:0.6
G1 F2100
G1 X163.7 Y84.3 E2.40499
G1 X163.7 Y85.7 E.09353
G1 X127.7 Y85.7 E2.40499
G1 X127.7 Y124.3 E2.57869
G1 X163.7 Y124.3 E2.40499
G1 X163.7 Y125.7 E.09353
G1 X127.7 Y125.7 E2.40499
G1 X127.7 Y127.7 E.13361
G1 X86.3 Y127.7 E2.76574
G1 X86.3 Y126.3 E.09353
G1 X126.3 Y126.3 E2.67222
G1 X126.3 Y83.7 E2.84591
G1 X86.3 Y83.7 E2.67222
G1 X86.3 Y82.3 E.09353
G1 X127.7 Y82.3 E2.76574
G1 X127.7 Y84.24 E.1296
M204 S1000
G1 X127.894 Y84.65 F10800
; stop printing object bracket.stl id:0 copy 0
;LAYER_CHANGE
;Z:2.3
;HEIGHT:0.3
;BEFORE_LAYER_CHANGE
G92 E0.0
;2.3


;WIPE_START
G1 F8640
G1 X130.991 Y84.245 E-.76
;WIPE_END
G1 E-.04 F2100
G1 Z2.4 F720
;AFTER_LAYER_CHANGE
;2.3
; printing object bracket.stl id:0 copy 0
G1 X127.214 Y84.786 F10800
G1 Z2.3 F720
G1 E.8 F2100
M204 S800
;TYPE:Perimeter
;WIDTH:0.5
G1 F3000
G1 X163.214 Y84.786 E1.95598
G1 X163.214 Y85.214 E.0233
G1 X127.214 Y85.214 E1.95598
G1 X127.214 Y124.786 E2.15002
G1 X163.214 Y124.786 E1.95598
M73 P6 R45
G1 X163.214 Y125.214 E.0233
G1 X127.214 Y125.214 E1.95598
G1 X127.214 Y127.214 E.10867
G1 X86.786 Y127.214 E2.19661
G1 X86.786 Y126.786 E.0233
G1 X126.786 Y126.786 E2.17331
G1 X126.786 Y83.214 E2.36735
G1 X86.786 Y83.214 E2.17331
G1 X86.786 Y82.786 E.0233
G1 X127.214 Y82.786 E2.19661
G1 X127.214 Y84.726 E.10541
M204 S1000
G1 X127.7 Y84.3 F10800
M204 S800
;TYPE:External perimeter
;WIDTH:0.6
G1 F2100
G1 X163.7 Y84.3 E2.40499
G1 X163.7 Y85.7 E.09353
M73 P7 R45
G1 X127.7 Y85.7 E2.40499
G1 X127.7 Y124.3 E2.57869
M73 Q7 S46
G1 X163.7 Y124.3 E2.40499
G1 X163.7 Y125.7 E.09353
G1 X127.7 Y125.7 E2.40499
G1 X127.7 Y127.7 E.13361
M73 Q7 S45
G1 X86.3 Y127.7 E2.76574
G1 X86.3 Y126.3 E.09353
G1 X126.3 Y126.3 E2.67222
G1 X126.3 Y83.7 E2.84591
G1 X86.3 Y83.7 E2.67222
G1 X86.3 Y82.3 E.09353
G1 X127.7 Y82.3 E2.76574
G1 X127.7 Y84.24 E.1296
M204 S1000
G1 X127.894 Y84.65 F10800
; stop printing object bracket.stl id:0 copy 0
;LAYER_CHANGE
;Z:2.6
;HEIGHT:0.3
;BEFORE_LAYER_CHANGE
G92 E0.0
;2.6


;WIPE_START
G1 F8640
G1 X130.991 Y84.245 E-.76
;WIPE_END
G1 E-.04 F2100
G1 Z2.7 F720
;AFTER_LAYER_CHANGE
;2.6
; printing object bracket.stl id:0 copy 0
G1 X127.214 Y84.786 F10800
G1 Z2.6 F720
G1 E.8 F2100
M204 S800
;TYPE:Perimeter
;WIDTH:0.5
G1 F3000
G1 X163.214 Y84.786 E1.95598
G1 X163.214 Y85.214 E.0233
G1 X127.214 Y85.214 E1.95598
G1 X127.214 Y124.786 E2.15002
G1 X163.214 Y124.786 E1.95598
G1 X163.214 Y125.214 E.0233
G1 X127.214 Y125.214 E1.95598
G1 X127.214 Y127.214 E.10867
G1 X86.786 Y127.214 E2.19661
G1 X86.786 Y126.786 E.0233
G1 X126.786 Y126.786 E2.17331
G1 X126.786 Y83.214 E2.36735
G1 X86.786 Y83.214 E2.17331
G1 X86.786 Y82.786 E.0233
G1 X127.214 Y82.786 E2.19661
G1 X127.214 Y84.726 E.10541
M204 S1000
G1 X127.7 Y84.3 F10800
M204 S800
;TYPE:External perimeter
;WIDTH:0.6
G1 F2100
G1 X163.7 Y84.3 E2.40499
G1 X163.7 Y85.7 E.09353
G1 X127.7 Y85.7 E2.40499
G1 X127.7 Y124.3 E2.57869
G1 X163.7 Y124.3 E2.40499
G1 X163.7 Y125.7 E.09353
G1 X127.7 Y125.7 E2.40499
G1 X127.7 Y127.7 E.13361
G1 X86.3 Y127.7 E2.76574
G1 X86.3 Y126.3 E.09353
G1 X126.3 Y126.3 E2.67222
G1 X126.3 Y83.7 E2.84591
G1 X86.3 Y83.7 E2.67222
G1 X86.3 Y82.3 E.09353
M73 P8 R45
M73 Q8 S45
G1 X127.7 Y82.3 E2.76574
G1 X127.7 Y84.24 E.1296
M204 S1000
G1 X127.894 Y84.65 F10800
