; generated by PrusaSlicer 2.4.2+linux-x64-GTK2 on 2024-01-21 at 10:01:14 UTC


;
;
; 

; external perimeters extrusion width = 0.60mm
; perimeters extrusion width = 0.50mm
; infill extrusion width = 0.50mm
; solid infill extrusion width = 0.50mm
; top infill extrusion width = 0.45mm
; first layer extrusion width = 0.42mm

M73 P0 R100
M73 Q0 S101
M201 X1000 Y1000 Z200 E5000 ; sets maximum accelerations, mm/sec^2
M203 X200 Y200 Z12 E120 ; sets maximum feedrates, mm / sec
M204 P1250 R1250 T1250 ; sets acceleration (P, T) and retract acceleration (R), mm/sec^2
M205 X8.00 Y8.00 Z0.40 E4.50 ; sets the jerk limits, mm/sec
M205 S0 T0 ; sets the minimum extruding and travel feed rate, mm/sec
M107
;TYPE:Custom
M862.3 P "MK3" ; printer model check
M862.1 P0.4 ; nozzle diameter check
M115 U3.11.0 ; tell printer latest fw version
G90 ; use absolute coordinates
M83 ; extruder relative mode
M104 S215 ; set extruder temp
M140 S60 ; set bed temp
M190 S60 ; wait for bed temp
M109 S215 ; wait for extruder temp
G28 W ; home all without mesh bed level
G80 ; mesh bed leveling
G1 Z0.2 F720
G1 Y-3 F1000 ; go outside print area
G92 E0
G1 X60 E9 F1000 ; intro line
G1 X100 E12.5 F1000 ; intro line
G92 E0
M221 S95

; Don't change E values below. Excessive value can damage the printer.

M907 E538 ; set extruder motor current
G21 ; set units to millimeters
G90 ; use absolute coordinates
M83 ; use relative distances for extrusion
M900 K0.05 ; Filament gcode LA 1.5
M900 K30 ; Filament gcode LA 1.0
M107
;LAYER_CHANGE
;Z:0.2
;HEIGHT:0.2
;BEFORE_LAYER_CHANGE
G92 E0.0
;0.2


G1 E-.8 F2100
G1 Z.4 F720
;AFTER_LAYER_CHANGE
;0.2
G1 X85.015 Y78.693 F10800
G1 Z.2 F720
G1 E.8 F2100
M204 S800
;TYPE:Skirt/Brim
;WIDTH:0.42
G1 F1200
G1 X86.06 Y77.817 E.04278
G1 X87 Y77.623 E.03008
G1 X129.14 Y77.627 E1.32126
G1 X163.14 Y79.627 E1.06789
G1 X164.421 Y80.095 E.04278
G1 X165.235 Y81.19 E.04278
G1 X165.377 Y82 E.02578
G1 X165.377 Y128 E1.4423
G1 X164.985 Y129.307 E.04278
G1 X163.94 Y130.183 E.04278
G1 X163.14 Y130.373 E.02578
G1 X129.14 Y132.373 E1.06789
G1 X87 Y132.377 E1.32126
G1 X85.693 Y131.985 E.04278
G1 X84.817 Y130.94 E.04278
G1 X84.623 Y130 E.03008
G1 X84.623 Y80 E1.56771
G1 X84.997 Y78.75 E.0409
M204 S1000
; printing object bracket.stl id:0 copy 0
;WIPE_START
G1 F8640
G1 X86.06 Y77.817 E-.32671
G1 X87 Y77.623 E-.22155
G1 X87.917 Y77.623 E-.21174
;WIPE_END
G1 E-.04 F2100
G1 Z.6 F720
G1 X87.787 Y80.787 F10800
G1 Z.2 F720
G1 E.8 F2100
M204 S800
;TYPE:Perimeter
G1 F1200
G1 X128.213 Y80.787 E1.26752
G1 X128.213 Y82.787 E.06271
G1 X162.213 Y82.787 E1.06605
G1 X162.213 Y85.213 E.07606
G1 X128.213 Y85.213 E1.06605
G1 X128.213 Y124.787 E1.24082
G1 X162.213 Y124.787 E1.06605
M73 Q0 S100
G1 X162.213 Y127.213 E.07606
G1 X128.213 Y127.213 E1.06605
G1 X128.213 Y129.213 E.06271
M73 P0 R99
G1 X87.787 Y129.213 E1.26752
G1 X87.787 Y126.787 E.07606
G1 X125.787 Y126.787 E1.19146
G1 X125.787 Y83.213 E1.36624
G1 X87.787 Y83.213 E1.19146
G1 X87.787 Y80.847 E.07418
M204 S1000
G1 X87.41 Y80.41 F10800
M204 S800
;TYPE:External perimeter
G1 F1200
G1 X128.59 Y80.41 E1.29117
G1 X128.59 Y82.41 E.06271
G1 X162.59 Y82.41 E1.06605
G1 X162.59 Y85.59 E.09971
G1 X128.59 Y85.59 E1.06605
G1 X128.59 Y124.41 E1.21717
G1 X162.59 Y124.41 E1.06605
G1 X162.59 Y127.59 E.09971
G1 X128.59 Y127.59 E1.06605
G1 X128.59 Y129.59 E.06271
G1 X87.41 Y129.59 E1.29117
G1 X87.41 Y126.41 E.09971
G1 X125.41 Y126.41 E1.19146
G1 X125.41 Y83.59 E1.34259
G1 X87.41 Y83.59 E1.19146
G1 X87.41 Y80.47 E.09783
M204 S1000
G1 X87.81 Y80.421 F10800
;WIPE_START
G1 F8640
G1 X90.701 Y80.465 E-.76
;WIPE_END
G1 E-.04 F2100
G1 Z.6 F720
G1 X161.334 Y82.9 F10800
G1 Z.2 F720
M73 P1 R99
M73 Q1 S100
G1 E.8 F2100
M204 S800
;TYPE:Solid infill
;WIDTH:0.421535
G1 F1200
G1 X161.93 Y83.496 E.02653
G1 X161.93 Y84.031 E.01686
G1 X160.969 Y83.07 E.04281
G1 X160.433 Y83.07 E.01686
G1 X161.93 Y84.567 E.06665
G1 X161.93 Y84.93 E.01143
G1 X161.758 Y84.93 E.00542
G1 X159.898 Y83.07 E.08282
G1 X159.362 Y83.07 E.01686
G1 X161.222 Y84.93 E.08282
G1 X160.687 Y84.93 E.01686
G1 X158.827 Y83.07 E.08282
G1 X158.291 Y83.07 E.01686
G1 X160.152 Y84.93 E.08282
G1 X159.616 Y84.93 E.01686
G1 X157.756 Y83.07 E.08282
G1 X157.22 Y83.07 E.01686
G1 X159.081 Y84.93 E.08282
G1 X158.545 Y84.93 E.01686
G1 X156.685 Y83.07 E.08282
G1 X156.15 Y83.07 E.01686
G1 X158.01 Y84.93 E.08282
G1 X157.474 Y84.93 E.01686
G1 X155.614 Y83.07 E.08282
G1 X155.079 Y83.07 E.01686
G1 X156.939 Y84.93 E.08282
G1 X156.403 Y84.93 E.01686
G1 X154.543 Y83.07 E.08282
G1 X154.008 Y83.07 E.01686
G1 X155.868 Y84.93 E.08282
G1 X155.333 Y84.93 E.01686
G1 X153.472 Y83.07 E.08282
G1 X152.937 Y83.07 E.01686
G1 X154.797 Y84.93 E.08282
G1 X154.262 Y84.93 E.01686
G1 X152.401 Y83.07 E.08282
G1 X151.866 Y83.07 E.01686
G1 X153.726 Y84.93 E.08282
G1 X153.191 Y84.93 E.01686
G1 X151.331 Y83.07 E.08282
G1 X150.795 Y83.07 E.01686
G1 X152.655 Y84.93 E.08282
G1 X152.12 Y84.93 E.01686
G1 X150.26 Y83.07 E.08282
G1 X149.724 Y83.07 E.01686
G1 X151.584 Y84.93 E.08282
G1 X151.049 Y84.93 E.01686
G1 X149.189 Y83.07 E.08282
G1 X148.653 Y83.07 E.01686
G1 X150.514 Y84.93 E.08282
G1 X149.978 Y84.93 E.01686
G1 X148.118 Y83.07 E.08282
G1 X147.582 Y83.07 E.01686
G1 X149.443 Y84.93 E.08282
G1 X148.907 Y84.93 E.01686
G1 X147.047 Y83.07 E.08282
G1 X146.512 Y83.07 E.01686
G1 X148.372 Y84.93 E.08282
G1 X147.836 Y84.93 E.01686
G1 X145.976 Y83.07 E.08282
G1 X145.441 Y83.07 E.01686
G1 X147.301 Y84.93 E.08282
G1 X146.765 Y84.93 E.01686
G1 X144.905 Y83.07 E.08282
G1 X144.37 Y83.07 E.01686
G1 X146.23 Y84.93 E.08282
G1 X145.695 Y84.93 E.01686
G1 X143.834 Y83.07 E.08282
G1 X143.299 Y83.07 E.01686
G1 X145.159 Y84.93 E.08282
G1 X144.624 Y84.93 E.01686
G1 X142.763 Y83.07 E.08282
G1 X142.228 Y83.07 E.01686
G1 X144.088 Y84.93 E.08282
G1 X143.553 Y84.93 E.01686
G1 X141.693 Y83.07 E.08282
G1 X141.157 Y83.07 E.01686
G1 X143.017 Y84.93 E.08282
G1 X142.482 Y84.93 E.01686
G1 X140.622 Y83.07 E.08282
G1 X140.086 Y83.07 E.01686
G1 X141.947 Y84.93 E.08282
G1 X141.411 Y84.93 E.01686
G1 X139.551 Y83.07 E.08282
G1 X139.015 Y83.07 E.01686
G1 X140.876 Y84.93 E.08282
G1 X140.34 Y84.93 E.01686
G1 X138.48 Y83.07 E.08282
G1 X137.945 Y83.07 E.01686
G1 X139.805 Y84.93 E.08282
G1 X139.269 Y84.93 E.01686
G1 X137.409 Y83.07 E.08282
G1 X136.874 Y83.07 E.01686
G1 X138.734 Y84.93 E.08282
G1 X138.198 Y84.93 E.01686
G1 X136.338 Y83.07 E.08282
G1 X135.803 Y83.07 E.01686
G1 X137.663 Y84.93 E.08282
G1 X137.128 Y84.93 E.01686
G1 X135.267 Y83.07 E.08282
G1 X134.732 Y83.07 E.01686
G1 X136.592 Y84.93 E.08282
G1 X136.057 Y84.93 E.01686
G1 X134.196 Y83.07 E.08282
G1 X133.661 Y83.07 E.01686
G1 X135.521 Y84.93 E.08282
G1 X134.986 Y84.93 E.01686
G1 X133.126 Y83.07 E.08282
G1 X132.59 Y83.07 E.01686
G1 X134.45 Y84.93 E.08282
G1 X133.915 Y84.93 E.01686
G1 X132.055 Y83.07 E.08282
G1 X131.519 Y83.07 E.01686
G1 X133.379 Y84.93 E.08282
G1 X132.844 Y84.93 E.01686
G1 X130.984 Y83.07 E.08282
G1 X130.448 Y83.07 E.01686
G1 X132.309 Y84.93 E.08282
G1 X131.773 Y84.93 E.01686
G1 X129.913 Y83.07 E.08282
G1 X129.377 Y83.07 E.01686
G1 X131.238 Y84.93 E.08282
G1 X130.702 Y84.93 E.01686
G1 X128.672 Y82.9 E.09038
M204 S1000
;WIPE_START
G1 F8640
G1 X130.702 Y84.93 E-.66287
G1 X131.123 Y84.93 E-.09713
;WIPE_END
G1 E-.04 F2100
G1 Z.6 F720
G1 X128.1 Y81.257 F10800
G1 Z.2 F720
G1 E.8 F2100
M204 S800
G1 F1200
G1 X127.913 Y81.07 E.00832
G1 X127.377 Y81.07 E.01686
G1 X127.93 Y81.623 E.02461
G1 X127.93 Y82.158 E.01686
G1 X126.842 Y81.07 E.04845
G1 X126.307 Y81.07 E.01686
G1 X127.93 Y82.693 E.07229
G1 X127.93 Y83.07 E.01185
G1 X128.307 Y83.07 E.01185
G1 X130.167 Y84.93 E.08282
G1 X129.631 Y84.93 E.01686
G1 X125.771 Y81.07 E.17187
G1 X125.236 Y81.07 E.01686
G1 X129.096 Y84.93 E.17187
G1 X128.56 Y84.93 E.01686
G1 X124.7 Y81.07 E.17187
G1 X124.165 Y81.07 E.01686
G1 X128.025 Y84.93 E.17187
G1 X127.93 Y84.93 E.00299
G1 X127.93 Y85.371 E.01387
G1 X126.07 Y83.51 E.08282
G1 X126.07 Y84.046 E.01686
G1 X127.93 Y85.906 E.08282
G1 X127.93 Y86.442 E.01686
G1 X126.07 Y84.581 E.08282
G1 X126.07 Y85.117 E.01686
G1 X127.93 Y86.977 E.08282
G1 X127.93 Y87.512 E.01686
G1 X126.07 Y85.652 E.08282
G1 X126.07 Y86.188 E.01686
G1 X127.93 Y88.048 E.08282
G1 X127.93 Y88.583 E.01686
G1 X126.07 Y86.723 E.08282
G1 X126.07 Y87.259 E.01686
G1 X127.93 Y89.119 E.08282
G1 X127.93 Y89.654 E.01686
G1 X126.07 Y87.794 E.08282
G1 X126.07 Y88.329 E.01686
G1 X127.93 Y90.19 E.08282
G1 X127.93 Y90.725 E.01686
G1 X126.07 Y88.865 E.08282
G1 X126.07 Y89.4 E.01686
G1 X127.93 Y91.261 E.08282
G1 X127.93 Y91.796 E.01686
G1 X126.07 Y89.936 E.08282
G1 X126.07 Y90.471 E.01686
G1 X127.93 Y92.331 E.08282
G1 X127.93 Y92.867 E.01686
G1 X126.07 Y91.007 E.08282
G1 X126.07 Y91.542 E.01686
G1 X127.93 Y93.402 E.08282
G1 X127.93 Y93.938 E.01686
G1 X126.07 Y92.078 E.08282
G1 X126.07 Y92.613 E.01686
G1 X127.93 Y94.473 E.08282
G1 X127.93 Y95.009 E.01686
G1 X126.07 Y93.148 E.08282
G1 X126.07 Y93.684 E.01686
G1 X127.93 Y95.544 E.08282
G1 X127.93 Y96.08 E.01686
G1 X126.07 Y94.219 E.08282
G1 X126.07 Y94.755 E.01686
G1 X127.93 Y96.615 E.08282
G1 X127.93 Y97.15 E.01686
G1 X126.07 Y95.29 E.08282
G1 X126.07 Y95.826 E.01686
G1 X127.93 Y97.686 E.08282
G1 X127.93 Y98.221 E.01686
G1 X126.07 Y96.361 E.08282
G1 X126.07 Y96.896 E.01686
G1 X127.93 Y98.757 E.08282
G1 X127.93 Y99.292 E.01686
G1 X126.07 Y97.432 E.08282
G1 X126.07 Y97.967 E.01686
G1 X127.93 Y99.828 E.08282
G1 X127.93 Y100.363 E.01686
G1 X126.07 Y98.503 E.08282
G1 X126.07 Y99.038 E.01686
G1 X127.93 Y100.899 E.08282
G1 X127.93 Y101.434 E.01686
G1 X126.07 Y99.574 E.08282
G1 X126.07 Y100.109 E.01686
G1 X127.93 Y101.969 E.08282
G1 X127.93 Y102.505 E.01686
G1 X126.07 Y100.645 E.08282
G1 X126.07 Y101.18 E.01686
G1 X127.93 Y103.04 E.08282
G1 X127.93 Y103.576 E.01686
G1 X126.07 Y101.715 E.08282
G1 X126.07 Y102.251 E.01686
G1 X127.93 Y104.111 E.08282
G1 X127.93 Y104.647 E.01686
G1 X126.07 Y102.786 E.08282
G1 X126.07 Y103.322 E.01686
G1 X127.93 Y105.182 E.08282
G1 X127.93 Y105.717 E.01686
G1 X126.07 Y103.857 E.08282
G1 X126.07 Y104.393 E.01686
G1 X127.93 Y106.253 E.08282
G1 X127.93 Y106.788 E.01686
G1 X126.07 Y104.928 E.08282
G1 X126.07 Y105.464 E.01686
G1 X127.93 Y107.324 E.08282
G1 X127.93 Y107.859 E.01686
G1 X126.07 Y105.999 E.08282
G1 X126.07 Y106.534 E.01686
G1 X127.93 Y108.395 E.08282
G1 X127.93 Y108.93 E.01686
G1 X126.07 Y107.07 E.08282
G1 X126.07 Y107.605 E.01686
G1 X127.93 Y109.466 E.08282
G1 X127.93 Y110.001 E.01686
G1 X126.07 Y108.141 E.08282
G1 X126.07 Y108.676 E.01686
G1 X127.93 Y110.536 E.08282
G1 X127.93 Y111.072 E.01686
G1 X126.07 Y109.212 E.08282
G1 X126.07 Y109.747 E.01686
G1 X127.93 Y111.607 E.08282
G1 X127.93 Y112.143 E.01686
G1 X126.07 Y110.283 E.08282
G1 X126.07 Y110.818 E.01686
G1 X127.93 Y112.678 E.08282
G1 X127.93 Y113.214 E.01686
G1 X126.07 Y111.353 E.08282
G1 X126.07 Y111.889 E.01686
G1 X127.93 Y113.749 E.08282
G1 X127.93 Y114.285 E.01686
G1 X126.07 Y112.424 E.08282
G1 X126.07 Y112.96 E.01686
G1 X127.93 Y114.82 E.08282
G1 X127.93 Y115.355 E.01686
G1 X126.07 Y113.495 E.08282
G1 X126.07 Y114.031 E.01686
G1 X127.93 Y115.891 E.08282
G1 X127.93 Y116.426 E.01686
G1 X126.07 Y114.566 E.08282
G1 X126.07 Y115.102 E.01686
G1 X127.93 Y116.962 E.08282
G1 X127.93 Y117.497 E.01686
G1 X126.07 Y115.637 E.08282
G1 X126.07 Y116.172 E.01686
G1 X127.93 Y118.033 E.08282
G1 X127.93 Y118.568 E.01686
G1 X126.07 Y116.708 E.08282
G1 X126.07 Y117.243 E.01686
G1 X127.93 Y119.104 E.08282
G1 X127.93 Y119.639 E.01686
G1 X126.07 Y117.779 E.08282
G1 X126.07 Y118.314 E.01686
G1 X127.93 Y120.174 E.08282
G1 X127.93 Y120.71 E.01686
G1 X126.07 Y118.85 E.08282
G1 X126.07 Y119.385 E.01686
G1 X127.93 Y121.245 E.08282
G1 X127.93 Y121.781 E.01686
G1 X126.07 Y119.921 E.08282
G1 X126.07 Y120.456 E.01686
G1 X127.93 Y122.316 E.08282
G1 X127.93 Y122.852 E.01686
G1 X126.07 Y120.991 E.08282
G1 X126.07 Y121.527 E.01686
G1 X127.93 Y123.387 E.08282
G1 X127.93 Y123.923 E.01686
G1 X126.07 Y122.062 E.08282
G1 X126.07 Y122.598 E.01686
G1 X128.1 Y124.628 E.09038
M204 S1000
;WIPE_START
G1 F8640
M73 Q1 S99
G1 X126.07 Y122.598 E-.66287
G1 X126.07 Y122.177 E-.09713
;WIPE_END
G1 E-.04 F2100
G1 Z.6 F720
G1 X161.57 Y124.9 F10800
G1 Z.2 F720
G1 E.8 F2100
M204 S800
G1 F1200
G1 X161.93 Y125.261 E.01604
G1 X161.93 Y125.796 E.01686
G1 X161.204 Y125.07 E.03233
G1 X160.669 Y125.07 E.01686
G1 X161.93 Y126.331 E.05617
G1 X161.93 Y126.867 E.01686
G1 X160.133 Y125.07 E.08001
G1 X159.598 Y125.07 E.01686
G1 X161.458 Y126.93 E.08282
G1 X160.922 Y126.93 E.01686
G1 X159.062 Y125.07 E.08282
G1 X158.527 Y125.07 E.01686
G1 X160.387 Y126.93 E.08282
G1 X159.852 Y126.93 E.01686
G1 X157.991 Y125.07 E.08282
G1 X157.456 Y125.07 E.01686
G1 X159.316 Y126.93 E.08282
G1 X158.781 Y126.93 E.01686
G1 X156.92 Y125.07 E.08282
G1 X156.385 Y125.07 E.01686
G1 X158.245 Y126.93 E.08282
G1 X157.71 Y126.93 E.01686
G1 X155.85 Y125.07 E.08282
G1 X155.314 Y125.07 E.01686
G1 X157.174 Y126.93 E.08282
G1 X156.639 Y126.93 E.01686
G1 X154.779 Y125.07 E.08282
G1 X154.243 Y125.07 E.01686
G1 X156.104 Y126.93 E.08282
G1 X155.568 Y126.93 E.01686
G1 X153.708 Y125.07 E.08282
G1 X153.172 Y125.07 E.01686
G1 X155.033 Y126.93 E.08282
G1 X154.497 Y126.93 E.01686
G1 X152.637 Y125.07 E.08282
G1 X152.101 Y125.07 E.01686
G1 X153.962 Y126.93 E.08282
G1 X153.426 Y126.93 E.01686
G1 X151.566 Y125.07 E.08282
G1 X151.031 Y125.07 E.01686
G1 X152.891 Y126.93 E.08282
G1 X152.355 Y126.93 E.01686
M73 P1 R98
G1 X150.495 Y125.07 E.08282
G1 X149.96 Y125.07 E.01686
G1 X151.82 Y126.93 E.08282
G1 X151.285 Y126.93 E.01686
G1 X149.424 Y125.07 E.08282
G1 X148.889 Y125.07 E.01686
G1 X150.749 Y126.93 E.08282
G1 X150.214 Y126.93 E.01686
G1 X148.353 Y125.07 E.08282
G1 X147.818 Y125.07 E.01686
G1 X149.678 Y126.93 E.08282
G1 X149.143 Y126.93 E.01686
G1 X147.283 Y125.07 E.08282
G1 X146.747 Y125.07 E.01686
G1 X148.607 Y126.93 E.08282
G1 X148.072 Y126.93 E.01686
G1 X146.212 Y125.07 E.08282
G1 X145.676 Y125.07 E.01686
G1 X147.536 Y126.93 E.08282
G1 X147.001 Y126.93 E.01686
G1 X145.141 Y125.07 E.08282
G1 X144.605 Y125.07 E.01686
G1 X146.466 Y126.93 E.08282
G1 X145.93 Y126.93 E.01686
G1 X144.07 Y125.07 E.08282
G1 X143.534 Y125.07 E.01686
G1 X145.395 Y126.93 E.08282
G1 X144.859 Y126.93 E.01686
G1 X142.999 Y125.07 E.08282
G1 X142.464 Y125.07 E.01686
G1 X144.324 Y126.93 E.08282
G1 X143.788 Y126.93 E.01686
G1 X141.928 Y125.07 E.08282
G1 X141.393 Y125.07 E.01686
G1 X143.253 Y126.93 E.08282
G1 X142.717 Y126.93 E.01686
G1 X140.857 Y125.07 E.08282
G1 X140.322 Y125.07 E.01686
G1 X142.182 Y126.93 E.08282
G1 X141.647 Y126.93 E.01686
G1 X139.786 Y125.07 E.08282
G1 X139.251 Y125.07 E.01686
G1 X141.111 Y126.93 E.08282
G1 X140.576 Y126.93 E.01686
G1 X138.715 Y125.07 E.08282
G1 X138.18 Y125.07 E.01686
G1 X140.04 Y126.93 E.08282
G1 X139.505 Y126.93 E.01686
G1 X137.645 Y125.07 E.08282
G1 X137.109 Y125.07 E.01686
G1 X138.969 Y126.93 E.08282
G1 X138.434 Y126.93 E.01686
G1 X136.574 Y125.07 E.08282
G1 X136.038 Y125.07 E.01686
G1 X137.898 Y126.93 E.08282
G1 X137.363 Y126.93 E.01686
G1 X135.503 Y125.07 E.08282
G1 X134.967 Y125.07 E.01686
G1 X136.828 Y126.93 E.08282
G1 X136.292 Y126.93 E.01686
G1 X134.432 Y125.07 E.08282
G1 X133.896 Y125.07 E.01686
G1 X135.757 Y126.93 E.08282
G1 X135.221 Y126.93 E.01686
G1 X133.361 Y125.07 E.08282
G1 X132.826 Y125.07 E.01686
G1 X134.686 Y126.93 E.08282
G1 X134.15 Y126.93 E.01686
G1 X132.29 Y125.07 E.08282
G1 X131.755 Y125.07 E.01686
G1 X133.615 Y126.93 E.08282
G1 X133.079 Y126.93 E.01686
G1 X131.219 Y125.07 E.08282
G1 X130.684 Y125.07 E.01686
G1 X132.544 Y126.93 E.08282
G1 X132.009 Y126.93 E.01686
G1 X130.148 Y125.07 E.08282
G1 X129.613 Y125.07 E.01686
G1 X131.473 Y126.93 E.08282
G1 X130.938 Y126.93 E.01686
G1 X129.077 Y125.07 E.08282
G1 X128.542 Y125.07 E.01686
G1 X130.402 Y126.93 E.08282
G1 X129.867 Y126.93 E.01686
G1 X126.07 Y123.133 E.16905
G1 X126.07 Y123.669 E.01686
G1 X129.331 Y126.93 E.14521
G1 X128.796 Y126.93 E.01686
G1 X126.07 Y124.204 E.12137
G1 X126.07 Y124.74 E.01686
G1 X128.261 Y126.93 E.09753
G1 X127.93 Y126.93 E.0104
G1 X127.93 Y127.135 E.00646
G1 X126.07 Y125.275 E.08282
G1 X126.07 Y125.81 E.01686
G1 X127.93 Y127.671 E.08282
G1 X127.93 Y128.206 E.01686
G1 X126.07 Y126.346 E.08282
G1 X126.07 Y126.881 E.01686
G1 X127.93 Y128.742 E.08282
